!!!!SEGMENT: pl-wtm--r-1657_stefani-jozef--cicha-lezka.krn
!!!cenid: 18xx:2051
!!!COM: Stefani, Józef
!!!COM-rismid: pe30024097
!!!CDT: 1800/04/16-1876/03/19
!!!CNT: Polish
!!!OTL: Cicha łezka
!!!PDT:
!!!AGN: Secular
!!!OMD: Andantino
!!!SMS-siglum: PL-Wtm
!!!SMS-shelfmark: R 1657
!!!SMS-shelfwork: W
!!!SMS-variant:
!!!SMS-altvar:
!!!NIFC-rismid: 1001114904
!!!URL-scan: http://repozytorium.nifc.pl/skany/pl-wtm-nut--r1652--r1653--r1654--r1655--r1656--r1657--r1658--r1659--r1660--r1661
!!!ONB-nifc: UWAGA: No. 14, skan 0009
!!!AIN: 1 empty 1 forte 1 vox
!!!key:
**kern	**kern	**dynam	**kern	**text	**dynam
*group1	*group1	*group1	*	*	*
*part3	*part2	*part2	*part1	*part1	*part1
*staff3	*staff2	*	*staff1	*staff1	*
*Iempty	*Iforte	*	*Ivox	*	*
*	*I"Fortepian	*	*I"Spiew	*	*
*	*I'pf	*	*I'V	*	*
*clefF4	*clefG2	*	*clefG2	*	*
*k[f#c#g#d#]	*k[f#c#g#d#]	*	*k[f#c#g#d#]	*	*
*E:	*E:	*	*E:	*	*
*M4/4	*M4/4	*	*M4/4	*	*
*met(c)	*met(c)	*	*met(c)	*	*
=1	=1	=1	=1	=1	=1
*all\right	*all\right	*	*all\right	*	*
!	!	!	!LO:TX:a:B:i:t=No 14.	!	!
8qE/	(>8qe/	mf	.	.	.
4e\	4ee\)	.	2r	.	.
8.d#\L	8.dd#\L	.	.	.	.
16B\Jk	16b\Jk	.	.	.	.
4A\	8cc#/L 8a/	.	4cc#\ 4a\	Gdy	.
.	8e/	.	.	.	.
4F#\	8dd#/ 8b/	.	4dd#\ 4a\	w tym	.
.	8a/J	.	.	.	.
=2	=2	=2	=2	=2	=2
*	*^	*	*^	*	*
4E\	8ee/L	4g#\	.	8.ee/L	4g#\	o-	.
.	8b/	.	.	.	.	.	.
.	.	.	.	16b/Jk	.	.	.
4E\	8g#/	4g#\	.	4b/	4g#\	-ku	.
.	8b/J	.	.	.	.	.	.
4A\	8cc#/L 8a/	2ryy	.	4cc#/	4a\	łza	.
.	8e/	.	.	.	.	.	.
4F#\	8dd#/ 8b/	.	.	4dd#/	4a\	li-	.
.	8a/J	.	.	.	.	.	.
=3	=3	=3	=3	=3	=3	=3	=3
4E\	8ee/L	4g#\	.	8.ee/L	4g#\	-to-	.
.	8b/	.	.	.	.	.	.
.	.	.	.	16b/Jk	.	.	.
4E\	8g#/	4g#\	.	4b/	4g#\	- ści;	.
.	8b/J	.	.	.	.	.	.
4.E/ 4.EE/	4.ee/	4.g#\	.	4.ee/	4.g#\	Nie-	.
8G#/ 8GG#/	8dd#/	8b\	.	8dd#/	8b\	-chaj	.
*	*v	*v	*	*	*	*	*
*	*	*	*v	*v	*	*
=4	=4	=4	=4	=4	=4
!!LO:PB:g=original
*^	*	*	*	*	*
!LO:TX:t=P:problem=mixed beam	!	!	!	!	!	!
(>8AA/L	2ryy	(8cc#/L 8a/	.	4cc#/ 4a/	pły-	.
8A\	.	8e/	.	.	.	.
8EE/	.	8b/ 8g#/	.	4b/ 4g#/	-nie	.
8E\J)	.	8e/J)	.	.	.	.
(8FF#\L	4FF#/	(8a/L 8f#/	.	4.a/ 4.f#/	ta-	.
8F#\	.	8c#/	.	.	.	.
8BB\	4ryy	8a/ 8f#/	.	.	.	.
8B\J)	.	8b/J 8d#/)	.	8b/ 8d#/	-ka	.
*v	*v	*	*	*	*	*
=5	=5	=5	=5	=5	=5
(8E\L	4g#/ 4e/	.	(8.g#/L 8.e/	łez-	.
8B\	.	.	.	.	.
.	.	.	16b/Jk 16g#/)	.	.
8G#\	4b/ 4g#/	.	4b/ 4g#/	-ka	.
8E\J)	.	.	.	.	.
!	!	!	!	!	!LO:DY:a
(8BB\L	4.f#/ 4.d#/	.	4.f#/	co	<
8D#\	.	.	.	.	.
8F#\	.	.	.	.	.
8B\J)	8b/ 8d#/	.	8b/ 8d#/	o-	[[
=6	=6	=6	=6	=6	=6
*	*^	*	*	*	*
!	!	!	!	!	!	!LO:DY:a
(8C#\L	(4b/	4.e\	.	4b/ 4e/	-rzeź-	>
8E\	.	.	.	.	.	.
8F#\	8a#X/)	.	.	8a#X/ 8e/	-wia	]
8c#\J)	8r	8ryy	.	8r	.	.
(8AA#X\L	4.f#/	2ryy	.	4.f#/	kwiat	.
8C#\	.	.	.	.	.	.
8F#\	.	.	.	.	.	.
8A#X\J)	8cc#/ 8e/	.	.	8cc#/ 8e/	lu-	.
*	*v	*v	*	*	*	*
=7	=7	=7	=7	=7	=7
!!LO:LB:g=original
8D#\L	4cc#/ 4e/	.	4cc#/ 4e/	-dzko-	.
8F#\J	.	.	.	.	.
8B\	8b/ 8d#/	.	8b/ 8d#/	-ści,	.
8r	8r	.	8r	.	.
!	!	!LO:DY:rj	!	!	!LO:DY:b:rj
(8E\L	4ee/ 4g#/	f	4ee/ 4g#/	Bo	f
8G#\	.	.	.	.	.
8c#\	4g#/ 4e/	.	4g#/ 4e/	to	.
8B\J)	.	.	.	.	.
=8	=8	=8	=8	=8	=8
(8A\L	8cc#/L 8e/	.	8cc#/L 8e/	ro-	.
8G#\	8b/J 8e#X/	.	8b/J 8e#X/	.	.
8F#\	4a/ 4f#/	.	4a/ 4f#/	-sa	.
8E\J)	.	.	.	.	.
!LO:TX:t=P:problem=mixed beam	!	!	!	!	!
(>8D#/L	4.f#/	.	4.f#/	iest	.
8C#/	.	.	.	.	.
8BB/	.	.	.	.	.
8B\J)	8b/ 8d#/	.	8b/ 8d#/	Nie-	.
=9	=9	=9	=9	=9	=9
*^	*	*	*	*	*
(8E/L	2ryy	4g#/ 4e/	.	4g#/ 4e/	-bies-	.
8BB/	.	.	.	.	.	.
8GG#/	.	4g#/ 4e/	.	4g#/ 4e/	-ka	.
8BB/J)	.	.	.	.	.	.
!LO:N:vis=2	!	!	!LO:DY:rj	!	!	!LO:DY:a
(8BB\L	2BB/	4.f#/ 4.d#/	p	4.f#/ 4.d#/	Co	<
8D#\	.	.	.	.	.	.
8F#\	.	.	.	.	.	.
8B\J)	.	8b/ 8d#/	.	8b/ 8d#/	o-	[[
=10	=10	=10	=10	=10	=10	=10
!!LO:PB:g=original
*	*	*^	*	*^	*	*
!LO:N:vis=2	!	!	!	!	!	!	!	!
(8C#\L	2C#/	4b/	4.e\	.	4b/	4e\	-rżeź-	.
8E\	.	.	.	.	.	.	.	.
8G#\	.	8a#X/	.	.	8a#X/	8e\	-wia	.
8c#\J)	.	8ra	8rc	.	8r	8ryy	.	.
!LO:N:vis=2	!	!	!	!	!	!	!	!
(8AA#X\L	2AA#/	4.f#/	2ryy	.	4.f#/	2ryy	Kwiat	.
8C#\	.	.	.	.	.	.	.	.
8F#\	.	.	.	.	.	.	.	.
8A#X\J)	.	8cc#/ 8e/	.	.	8cc#/ 8e/	.	ludz-	.
*v	*v	*	*	*	*v	*v	*	*
*	*v	*v	*	*	*	*
=11	=11	=11	=11	=11	=11
8BB\L	4cc#/ 4e/	.	4cc#/ 4e/	-koś-	.
8F#\J	.	.	.	.	.
8B\	8b/ 8d#/	.	8b/ 8d#/	-ci	.
8r	8r	.	8r	.	.
!	!	!LO:DY:rj	!	!	!LO:DY:a:rj
(8E\L	4ee/ 4g#/ 4e/	f	4ee/ 4g#/	Co	f
8G#\	.	.	.	.	.
8c#\	4g#/ 4e/	.	4g#/ 4e/	o-	.
8B\J)	.	.	.	.	.
=12	=12	=12	=12	=12	=12
(8A\L	8cc#/L 8e/	.	8cc#/L 8e/	-rżeź -	.
8G#\	8b/J 8e#X/	.	8b/J 8e#X/	.	.
8F#\	4a/ 4f#/	.	4a/ 4f#/	-wia	.
8E\J)	.	.	.	.	.
(8D#\L	4.f#/	.	4.f#/	Kwiat	.
8C#\	.	.	.	.	.
8BB\	.	.	.	.	.
8B\J)	8b/ 8d#/	.	8b/ 8d#/	ludz-	.
=13	=13	=13	=13	=13	=13
(8E/L	4g#/ 4e/	.	4g#/ 4e/	-koś-	.
8BB/	.	.	.	.	.
8GG#/	4g#/ 4e/	.	4g#/ 4e/	-ci	.
8EE/J)	.	.	.	.	.
(8E\L	4ee/ 4g#/ 4e/	.	4ee/ 4g#/	Co	.
8G#\	.	.	.	.	.
8c#\	4g#/ 4e/	.	4g#/ 4e/	o-	.
8B\J)	.	.	.	.	.
=14	=14	=14	=14	=14	=14
!!LO:PB:g=original
(8A\L	8cc#/L 8e/	.	8cc#/L 8e/	-rżeź-	.
8G#\	8b/J 8e#X/	.	8b/J 8e#X/	.	.
8F#\	4a/ 4f#/	.	4a/ 4f#/	-wia	.
8E\J)	.	.	.	.	.
(8D#\L	4.f#/	.	4.f#/	Kwiat	.
8C#\	.	.	.	.	.
8BB\	.	.	.	.	.
8B\J)	8b/ 8d#/	.	8b/ 8d#/	ludz-	.
=15	=15	=15	=15	=15	=15
8.B\L 8.BB\	8.b/L 8.d#/	.	8.b/L 8.d#/	-koś-	.
16B\Jk 16G#\ 16E\	16e/Jk	.	16e/Jk	.	.
4B\ 4G#\ 4E\	4e/	.	4e/	-ci.	.
!	!	!LO:DY:rj	!	!	!
4A\	4cc#/ 4a/ 4e/	p	2r	.	.
8c#\L	4a/ 4e/	.	.	.	.
8cn\J	.	.	.	.	.
=16	=16	=16	=16	=16	=16
4B\	4g#/ 4e/	.	1r	.	.
4c#\ 4C#\	4ee/ 4g#/ 4e/	.	.	.	.
4A\ 4AA\	4f#/ 4e/	.	.	.	.
4A\ 4BB\	4b/ 4d#/	.	.	.	.
=17	=17	=17	=17	=17	=17
8G#\ 8E\	8e/	.	1r	.	.
8r	8r	.	.	.	.
4B\ 4F#\ 4BB\	4ddd#\ 4bb\ 4aa\ 4ff#\	.	.	.	.
4B\ 4G#\ 4E\	4eee\ 4bb\ 4gg#\ 4ee\	.	.	.	.
4r	4r	.	.	.	.
==	==	==	==	==	==
*-	*-	*-	*-	*-	*-
!!!system-decoration: s1{(g1)}
!!!RDF**kern: > = above
!!!RDF**kern: < = below
!!!EED: Andrzej Borzym
!!!EEV: 2021-05-08
!!!ENC: Tomasz Grochalski
!!!END: 2021-04-26
